X:1
T:Dont vient cela
T:(Basse dansse 1)
C:Tielman Susato
S:Tileman Susato: Danserye (1551)
R:Basse dance
M:3/2
L:1/2
K:Ddor
DDD|D>E F/E/|D/C/D2|C2C|CDE|FG>F|F2E|F2z|
FFF|F2G|E2E|EFG|A>GF|E/D/E>D|D2^C|D2z:|
|:FFF|F2G|A2^G|A2z|FFF|E/D/E/F/G|F2E|F2z|
FFF|F2G|A2^G|A2z|F>E D/C/|DE>D|D2^C|D2z:|
"^Reprise"FFF|E/F/G/F/E/D/|D2^C|D2z|FFF|E2E|D2D|^C2z|
FFF|E/F/G/F/E/D/|D2^C|D2z|CDE|FE>D|D2^C|D2z|
E>D E/F/|E2z|E>F G/E/|F2z|F>E D/C/|D>EF|ED2|^C2z|
E>D E/F/|E2z|E>F G/E/|F2z|F>E D/C/|DE>D|D2^C|D3|]
